X: 24352
T: Louis'
R: waltz
M: 3/4
K: Dmajor
AB AG|F2 DF Ad|f2ffef|g2 bg fg|
B2BdcB|A2 EF GA|c2B2c2|F2FDFB|
A2ABAG|F2 DF Ad|f2ffef|g2 bg fg|
B2BdcB|A2 EF GA|c2B2c2|d3 A FA|D3 A BA|
G2GABA|c2cABA|F2FDFA|d2c2d2|
e4 ef|e2A2G2|F2FEFG|F2E2F2|
G2GABA|c2cABA|F3 D FA||
d2c2d2|E4 EF|G2F2E2|D2F2A2|d2z4|

